ksmif.org/public/images/icon/home.svg

<svg width="41" height="41" viewBox="0 0 41 41" fill="none" xmlns="http://www.w3.org/2000/svg">
<path d="M10.09 31.952H15.1351V21.8619H25.2252V31.952H30.2702V16.8168L20.1801 9.24925L10.09 16.8168V31.952ZM6.72668 35.3153V15.1351L20.1801 5.04504L33.6336 15.1351V35.3153H21.8618V25.2252H18.4985V35.3153H6.72668Z" fill="black"/>
</svg>

<svg xmlns="http://www.w3.org/2000/svg" width="41" height="41" fill="none"><path fill="#000" d="M10.09 31.952h5.045v-10.09h10.09v10.09h5.045V16.817L20.18 9.249l-10.09 7.568zm-3.363 3.363v-20.18L20.18 5.045l13.454 10.09v20.18H21.862v-10.09h-3.363v10.09z"/></svg>
